app/dist/common/images/bowlero.svg

<svg height="18" viewBox="0 0 18 18" width="18" xmlns="http://www.w3.org/2000/svg"><path d="m0 0h18v18h-18z" fill="#f0f3fa"/><path d="m13 5h-8v8h8zm-9-1v10h10v-10z" fill="#094b87" fill-rule="evenodd"/><path d="m5 5h1.5v5h-1.5z" fill="#0082c3"/><path d="m6.5 5h1.5v5h-1.5z" fill="#074d81"/><path d="m8 5h2v5h-2z" fill="#0081c2"/><path d="m11.5 5h1.5v5h-1.5z" fill="#0081c3"/><path d="m10 5h1.5v5h-1.5z" fill="#074d81"/><path d="m6 11h6v1h-6z" fill="#7da0bc"/></svg>

<!-- by TradingView --><svg width="18" height="18" viewBox="0 0 18 18" xmlns="http://www.w3.org/2000/svg"><path fill="#F0F3FA" d="M0 0h18v18H0z"/><path fill-rule="evenodd" d="M13 5H5v8h8V5ZM4 4v10h10V4H4Z" fill="#094B87"/><path d="M5 5h1.5v5H5V5Z" fill="#0082C3"/><path d="M6.5 5H8v5H6.5V5Z" fill="#074D81"/><path d="M8 5h2v5H8V5Z" fill="#0081C2"/><path d="M11.5 5H13v5h-1.5V5Z" fill="#0081C3"/><path d="M10 5h1.5v5H10V5Z" fill="#074D81"/><path fill="#7DA0BC" d="M6 11h6v1H6z"/></svg>
